!!!!SEGMENT: pl-kk--kk-i-382--013-001_anonim--nro-4-alleluia-ave-maria.krn
!!!cenid: 18xx:1475
!!!COM: Anonim
!!!COM-rismid: pe30004985
!!!CDT:
!!!CNT:
!!!OPR: Nro 4
!!!OTL: Alleluia Ave Maria
!!!OMV: 004
!!!PDT:
!!!AGN: Sacred
!!!SMS-siglum: PL-Kk
!!!SMS-shelfmark: Kk.I.382
!!!SMS-shelfwork: 004-004 M
!!!SMS-variant:
!!!SMS-altvar:
!!!NIFC-rismid: 1001139096
!!!URL-scan: http://repozytorium.nifc.pl/skany/pl-kk-nut--i-382
!!!ONB-nifc: UWAGA: obsada: S (T 1), A (B 1), T 2, B 2; S (T 1): skan 0012-0013; A (B 1): skan 0157; T 2: skan 0084; B 2: skan 0229
!!!AIN: 1 alto 1 bass 2 tenor
!!!key:
**kern	**text	**dynam	**kern	**text	**kern	**text	**kern	**text
*part4	*part4	*part4	*part3	*part3	*part2	*part2	*part1	*part1
*staff4	*staff4	*	*staff3	*staff3	*staff2	*staff2	*staff1	*staff1
*Ibass	*	*	*Itenor	*	*Ialto	*	*Itenor	*
*I"Basso II	*	*	*I"Tenore II	*	*I"Alto vel Basso I	*	*I"Soprano vel Tenore I.	*
*I'B 2	*	*	*I'T 2	*	*I'A (B 1)	*	*I'S (T 1)	*
*clefF4	*	*	*clefC4	*	*clefC3	*	*clefC1	*
*k[b-]	*	*	*k[b-]	*	*k[b-]	*	*k[b-]	*
*F:	*	*	*F:	*	*F:	*	*F:	*
*M4/4	*	*	*M4/4	*	*M4/4	*	*M4/4	*
*met(c|)	*	*	*met(C.)	*	*met(C.)	*	*met(C.)	*
=1	=1	=1	=1	=1	=1	=1	=1	=1
*2\right	*	*	*2\right	*	*2\right	*	*2\right	*
!LO:TX:a:t=P:problem=w źródle "Graduale in F." zapisane przed pierwszym taktem, na pięciolinii i częściowo pod pięciolinią	!	!	!LO:TX:a:t=P:problem=w źródle "Graduale. in F." zapisane przed pierwszym taktem, na pięciolinii i częściowo pod pięciolinią	!	!LO:TX:a:t=P:problem=w źródle "Graduale." zapisane przed pierwszym taktem, na pięciolinii	!	!LO:TX:a:t=P:problem=w źródle "Graduale." zapisane przed pierwszym taktem, na pięciolinii	!
!LO:TX:a:i:t=Graduale\nin F.	!	!	!LO:TX:a:i:t=Graduale.\nin F.	!	!LO:TX:a:i:t=Graduale.	!	!LO:TX:a:i:t=Graduale.	!
1F	Al-	.	1c	Al-	1f	Al-	1a	Al-
=2	=2	=2	=2	=2	=2	=2	=2	=2
!	!	!	!LO:TX:t=P:problem=all\right&colon; global	!	!LO:TX:t=P:problem=all\right&colon; global	!	!LO:TX:t=P:problem=all\right&colon; global	!
2F\	-le-	.	2c\	-le-	2f\	-le-	2a\	-le-
2E\	-lu-	.	2c\	-lu-	2g\	-lu-	2g\	-lu-
=3	=3	=3	=3	=3	=3	=3	=3	=3
2F\	-ia	.	2c\	-ia	2f\	-ia	2a\	-ja
2E\	al-	.	2c\	al-	2c\	al-	2g\	al-
=4	=4	=4	=4	=4	=4	=4	=4	=4
2.D\	-le-	.	2c\	-le-	2.f\	-le-	2a\	-le-
.	.	.	2Bn\	-lu-	.	.	2dd\	-lu-
4D\	-lu-	.	.	.	4f\	-lu-	.	.
=5	=5	=5	=5	=5	=5	=5	=5	=5
2C/	-ia	.	4c\	-ia	4e\	-ia	2g\	-ja
.	.	.	4c\	al-	4e\	al-	.	.
2D/	al-	.	4A\	-le-	4f\	-le-	2dd\	al-
.	.	.	4A\	-lu-	4f\	-lu-	.	.
!	!	!	!	!	!LO:LB:g=original	!	!	!
=6	=6	=6	=6	=6	=6	=6	=6	=6
2AA/	-le-	.	2A\	-ia	4f\	-ia	(>2cc\	-le-
.	.	.	.	.	4f\	al-	.	.
2BB-/	.	.	4d\	al-	[>2f\	-le-	4b-\	.
.	.	.	4d\	-le-	.	.	4a\)	.
=7	=7	=7	=7	=7	=7	=7	=7	=7
1C	-lu-	.	1c	-lu-	2f\]	.	1g	-lu-
.	.	.	.	.	2e\	-lu-	.	.
!LO:LB:g=original	!	!	!LO:LB:g=original	!	!	!	!LO:LB:g=original	!
=8	=8	=8	=8	=8	=8	=8	=8	=8
2F\	-ia	.	2c\	-ia	2f\	-ia,	2a\	-ja
(>4F\	a-	.	4F/	a-	2c\	a-	(>4a\	A-
4E\)	.	.	4G/	.	.	.	4g\)	.
=9	=9	=9	=9	=9	=9	=9	=9	=9
(>4D\	-ve	.	2A\	-ve	2.d\	-ve	(>4f\	-ve
4E\)	.	.	.	.	.	.	4g\)	.
(>4F\	ma-	.	2A\	ma-	.	.	(>4a\	-ma-
4G\)	.	.	.	.	4g\	ma-	4b-\)	.
=10	=10	=10	=10	=10	=10	=10	=10	=10
2A\	-ri-	.	2A\	-ri-	2f\	-ri-	2cc\	-ri-
2A\	-a	.	2A\	-a	2f\	-a	2cc\	-a
=11	=11	=11	=11	=11	=11	=11	=11	=11
2B-X\	gra-	.	2d\	gra-	2f\	gra-	2dd\	gra-
4A\	-ti-	.	4A\	-ti-	4f\	-ti-	4cc\	-ti-
4A\	-a	.	4A\	-a	4f\	-a	4cc\	-a
=12	=12	=12	=12	=12	=12	=12	=12	=12
1G	ple-	.	1B-X	ple-	(>2f\	ple-	1b-X	ple-
.	.	.	.	.	2e\)	.	.	.
!	!	!	!	!	!LO:LB:g=original	!	!	!
=13	=13	=13	=13	=13	=13	=13	=13	=13
1F	-na	.	1F	-na	1f	-na	1a	-na
=14	=14	=14	=14	=14	=14	=14	=14	=14
!LO:TX:a:t=P:problem=w źródle "p." zapisane na pięciolinii	!	!	!	!	!	!	!	!
!	!	!LO:DY:rj	!	!	!	!	!	!
!	!	!LO:DY:b:t=p.	!	!	!	!	!	!
2d\	Do-	p	2d\	Do-	1r	.	2dd\	Do-
!	!	!	!	!	!LO:TX:b:t=1.	!	!	!
4G\	-mi-	.	4G/	-mi-	.	.	4g\	-mi-
4G\	-nus	.	4G/	-nus	.	.	4g\	-nus
!LO:LB:g=original	!	!	!	!	!	!	!LO:LB:g=original	!
=15	=15	=15	=15	=15	=15	=15	=15	=15
2c\	te-	.	2c\	te-	2a\	Do-	2cc\	te
2F\	-cum	.	2F/	-cum	4d\	-mi-	2f/	cum
.	.	.	.	.	4d\	-nus	.	.
=16	=16	=16	=16	=16	=16	=16	=16	=16
2B-\	Do-	.	1r	.	2g\	te-	2b-\	Do-
4B-\	-mi-	.	.	.	2c\	-cum	4b-\	-mi-
!	!	!	!LO:TX:a:t=1.	!	!	!	!	!
8c\L	-nus	.	.	.	.	.	(>8cc\L	-nus
8B-\J	.	.	.	.	.	.	8b-\J)	.
!	!	!	!LO:LB:g=original	!	!	!	!	!
=17	=17	=17	=17	=17	=17	=17	=17	=17
(>4A\	te-	.	2d\	Do-	4f\	be-	4a\	te-
8G\L	.	.	.	.	4f\	-ne-	8g\L	.
8A\J)	.	.	.	.	.	.	8a\J	.
(>4B-\	-cum	.	4G/	-mi-	4f\	-dic-	4b-\	.
8c\L	.	.	4G/	-nus	(>8g\L	-ta	8cc\L	.
8B-\J)	.	.	.	.	8f\J)	.	8b-\J	.
=18||	=18||	=18||	=18	=18	=18	=18	=18	=18
!LO:TX:a:t=P:problem=w źródle "f." zapisane na pięciolinii	!	!	!	!	!	!	!	!
!	!	!LO:DY:rj	!	!	!	!	!	!
!	!	!LO:DY:b:t=f.	!	!	!	!	!	!
2A\	Do-	f	2c\	te-	4e\	tu	1a	-cum
.	.	.	.	.	4c\	in	.	.
!	!	!	!	!	!LO:TX:a:t=P:problem=w źródle ta adnotacja zapisana za taktem 18, na pięciolinii	!	!	!
!	!	!	!	!	!LO:TX:b:i:t=V&colon; S&colon;	!	!	!
4D\	-mi-	.	2F/	-cum	2f\	mu-	.	.
4D\	-nus	.	.	.	.	.	.	.
!	!	!	!	!	!LO:PB:g=original	!	!	!
=19	=19	=19	=19	=19	=19	=19	=19	=19
2G\	te-	.	4B-\	be-	4f\	.	1r	.
.	.	.	4B-\	-ne-	8g\L	.	.	.
.	.	.	.	.	8f\J	.	.	.
!	!	!	!	!	!	!	!LO:TX:b:t=1.	!
2C/	-cum	.	4B-\	-dic-	2e\	.	.	.
.	.	.	(>8c\L	-ta	.	.	.	.
.	.	.	8B-\J)	.	.	.	.	.
=20	=20	=20	=20	=20	=20	=20	=20	=20
4F\	be-	.	2.A\	tu	4e\	.	2a\	be-
4F\	-ne-	.	.	.	8f\L	.	.	.
.	.	.	.	.	8e\J	.	.	.
!LO:LB:g=original	!	!	!	!	!	!	!	!
4F\	-dic-	.	.	.	2d\	.	4d/	-ne-
8G\L	-ta	.	(>8B-\L	in	.	.	4d/	-dic-
8F\J	.	.	8A\J)	.	.	.	.	.
!	!	!	!	!	!	!	!LO:LB:g=original	!
=21	=21	=21	=21	=21	=21	=21	=21	=21
4E\	tu	.	4G/	mu-	4d\	.	2g\	-ta
8F\L	.	.	(<8A/L	-li-	8e\L	.	.	.
8G\J	.	.	8B-/J)	.	8d\J	.	.	.
2A\	.	.	4c\	-e-	2c\	.	2c/	tu
.	.	.	4c\	-ri-	.	.	.	.
=22	=22	=22	=22	=22	=22	=22	=22	=22
4D\	in	.	2A\	-bus	4c\	.	2f/	in
8E\L	.	.	.	.	8d\L	.	.	.
8F\J	.	.	.	.	8c\J	.	.	.
2G\	.	.	2r	.	2Bn/	-li-	4f/	mu-
.	.	.	.	.	.	.	(<8g/L	-li-
.	.	.	.	.	.	.	8f/J)	.
=23	=23	=23	=23	=23	=23	=23	=23	=23
(>4C\	mu-	.	1r	.	2c/	-e-	4e/	-e-
8D\L	.	.	.	.	.	.	4c/	.
!	!	!	!LO:TX:a:t=1.	!	!	!	!	!
8E\J)	.	.	.	.	.	.	.	.
(>4F\	-li-	.	.	.	(>4a\	-ri-	2cc\	.
4E\)	.	.	.	.	4g\)	.	.	.
!	!	!	!LO:LB:g=original	!	!	!	!	!
=24	=24	=24	=24	=24	=24	=24	=24	=24
2.D\	-e-	.	2A\	et	2f\	-bus	4cc\	.
.	.	.	.	.	.	.	8dd\L	.
.	.	.	.	.	.	.	8cc\J	.
.	.	.	4D/	be-	2f\	tu	2bn\	-ri-
4D\	-ri-	.	4D/	-ne-	.	.	.	.
!	!	!	!	!	!LO:LB:g=original	!	!	!
=25	=25	=25	=25	=25	=25	=25	=25	=25
2C/	-bus	.	2G/	-dic-	2e\	in	2cc\	-bus
!LO:TX:a:t=P:problem=w źródle "p." zapisane na pięciolinii	!	!	!	!	!	!	!	!
!	!	!LO:DY:rj	!	!	!	!	!	!
!	!	!LO:DY:b:t=p.	!	!	!	!	!	!
4E\	mu-	p	2C/	-tus	4e\	mu-	2r	.
(>8F\L	-li-	.	.	.	(>8f\L	-li-	.	.
8G\J)	.	.	.	.	8g\J)	.	.	.
!LO:LB:g=original	!	!	!	!	!	!	!	!
=26	=26	=26	=26	=26	=26	=26	=26	=26
4A\	-e-	.	4F/	fru-	4a\	-e-	2r	.
8G\L	.	.	4F/	-ctus	8g\L	.	.	.
8A\J	.	.	.	.	8a\J	.	.	.
4D\	.	.	4F/	ven-	4d\	.	2dd\	et
8E\L	.	.	8G/L	.	8e\L	.	.	.
8F\J	.	.	8F/J	.	8f\J	.	.	.
=27	=27	=27	=27	=27	=27	=27	=27	=27
4G\	.	.	4E/	.	4g\	.	4g\	be-
4F\	-ri-	.	8F/L	.	4f\	.	4g\	-ne-
.	.	.	8G/J	.	.	.	.	.
!	!	!	!	!	!	!	!LO:LB:g=original	!
2E\	-bus	.	2A\	.	2e\	.	2cc\	-dic-
=28||	=28||	=28||	=28	=28	=28	=28	=28	=28
!LO:TX:a:t=P:problem=w źródle "f." zapisane na pięciolinii	!	!	!	!	!	!	!	!
!	!	!LO:DY:rj	!	!	!	!	!	!
!	!	!LO:DY:b:t=f.	!	!	!	!	!	!
2D\	et	f	4D/	.	4e\	.	2f/	-tus
.	.	.	8E/L	.	8f\L	.	.	.
.	.	.	8F/J	.	8e\J	.	.	.
4GG/	be-	.	4G/	.	2d\	-ri-	4b-X\	fru-
4GG/	-ne-	.	4F/	.	.	.	4b-\	-ctus
=29	=29	=29	=29	=29	=29	=29	=29	=29
2C/	-di-	.	4E/	.	2c\	-bus	4b-\	ven-
.	.	.	8F/L	.	.	.	8cc\L	.
.	.	.	8G/J	.	.	.	8b-\J	.
2FF/	-ctus	.	2A/	.	2r	.	4a\	.
.	.	.	.	.	.	.	8b-\L	.
.	.	.	.	.	.	.	8cc\J	.
=30	=30	=30	=30	=30	=30	=30	=30	=30
4BB-/	fru-	.	4A/	.	2d\	et	2.dd\	.
4BB-/	-ctus	.	8G/L	.	.	.	.	.
.	.	.	8F/J	.	.	.	.	.
4BB-/	ven-	.	2G/	.	4G/	be-	.	.
8C/L	-tris	.	.	.	4G/	-ne-	8ee-X\L	-tris
8BB-/J	.	.	.	.	.	.	8dd\J	.
!	!	!	!LO:LB:g=original	!	!LO:LB:g=original	!	!LO:LB:g=original	!
=31	=31	=31	=31	=31	=31	=31	=31	=31
2.AA/	ven-	.	4G/	.	2c\	-di-	4cc\	tu-
.	.	.	8F/L	.	.	.	4f/	-i
.	.	.	8E/J	.	.	.	.	.
.	.	.	4F/	.	2F/	-ctus	[>2ff\	ven-
4BB-/	-tris	.	4G/	.	.	.	.	.
=32	=32	=32	=32	=32	=32	=32	=32	=32
1C	tu-	.	(>4A\	-tris	4c\	fru-	4ff\]	.
.	.	.	4B-\)	.	4c\	-ctus	8een\L	tris
.	.	.	.	.	.	.	8dd\J	.
.	.	.	2G/	tu-	4B-X/	ven-	2ee\	tu-
.	.	.	.	.	4B-/	-tris	.	.
!LO:LB:g=original	!	!	!	!	!	!	!	!
=33	=33	=33	=33	=33	=33	=33	=33	=33
2F\	-i	.	2F/	-i	4A/	tu-	2ff\	-i,
.	.	.	.	.	4A/	-i	.	.
!	!	!	!	!	!	!	!LO:TX:a:t=P:problem=w źródle ta adnotacja zapisana za taktem 33, na pieciolinii	!
!	!	!	!	!	!	!	!LO:TX:b:i:t=V&colon; S&colon;	!
4D\	be-	.	2r	.	[>2a\	ven-	2r	.
8E\L	-ne-	.	.	.	.	.	.	.
8F\J	.	.	.	.	.	.	.	.
!	!	!	!	!	!	!	!LO:PB:g=original	!
=34	=34	=34	=34	=34	=34	=34	=34	=34
4G\	-di-	.	2d\	et	4a\]	.	2b-\	fru-
4F\,	-ctus	.	.	.	8g\L	.	.	.
.	.	.	.	.	8f\J	.	.	.
(>4E\	fruc-	.	4G/	be-	[>2g\	.	2cc\	-ctus
8F\L	.	.	4G/	-ne-	.	.	.	.
8G\J)	.	.	.	.	.	.	.	.
=35	=35	=35	=35	=35	=35	=35	=35	=35
(>4A\	-tus	.	2c\	-di-	4g\]	.	(>4a\	ven-
4G\)	.	.	.	.	8f\L	.	8b-\L	.
.	.	.	.	.	8e\J	.	8cc\J	.
(>4F\	ven-	.	2A\	-ctus	2f\	.	2dd\)	.
8G\L	.	.	.	.	.	.	.	.
8A\J)	.	.	.	.	.	.	.	.
!	!	!	!	!	!LO:LB:g=original	!	!	!
=36	=36	=36	=36	=36	=36	=36	=36	=36
4B-\	-tris	.	4d\	fru-	4f\	.	(>4dd\	-tris
4G\	.	.	4d\	-ctus	4g\	-tris	8ee\L	.
.	.	.	.	.	.	.	8dd\J)	.
2A\	tu-	.	4en\	ven-	2e\	tu-	2cc#X\	tu-
.	.	.	4e\	-tris	.	.	.	.
=37	=37	=37	=37	=37	=37	=37	=37	=37
2D\	i	.	4f\	tu-	2d\	-i	2dd\	-i
.	.	.	4f\	-i	.	.	.	.
2r	.	.	(>4A\	ven-	2r	.	2r	.
.	.	.	8B-\L	.	.	.	.	.
.	.	.	8c\J)	.	.	.	.	.
!	!	!	!LO:LB:g=original	!	!	!	!	!
=38	=38	=38	=38	=38	=38	=38	=38	=38
1r	.	.	2d\	.	(>4d\	fru-	1r	.
.	.	.	.	.	8e\L	.	.	.
!LO:TX:b:t=1	!	!	!	!	!	!	!LO:TX:a:t=1.	!
.	.	.	.	.	8f\J)	.	.	.
.	.	.	4G\	.	2g\	-ctus	.	.
.	.	.	8A\L	.	.	.	.	.
.	.	.	8B-\J	.	.	.	.	.
=39	=39	=39	=39	=39	=39	=39	=39	=39
2A\	et	.	2c\	.	4c\	ven-	2r	.
.	.	.	.	.	8d\L	.	.	.
.	.	.	.	.	8e\J	.	.	.
4D\	be-	.	4F/	.	2f\	.	2a\	et
4D\	-ne-	.	8G/L	.	.	.	.	.
.	.	.	8A/J	.	.	.	.	.
=40	=40	=40	=40	=40	=40	=40	=40	=40
2G\	-di-	.	2.B-X\	.	2d\	-tris	4d/	be-
.	.	.	.	.	.	.	4d/	-ne-
2C/	-ctus	.	.	.	2r	.	2g/	-dic-
.	.	.	8c\L	-tris	.	.	.	.
.	.	.	8B-\J	.	.	.	.	.
!LO:LB:g=original	!	!	!	!	!	!	!LO:LB:g=original	!
=41	=41	=41	=41	=41	=41	=41	=41	=41
4F\	fru-	.	2.A\	tu-	2a\	et	2cc\	-tus
4F\	-ctus	.	.	.	.	.	.	.
4F\	ven-	.	.	.	4d\	be-	4dd\	fru-
8G\L	.	.	8B-\L	.	4d\	-ne-	4dd\	-ctus
8F\J	.	.	8A\J	.	.	.	.	.
!	!	!	!	!	!LO:LB:g=original	!	!	!
=42	=42	=42	=42	=42	=42	=42	=42	=42
4E\	.	.	2G/	-i	2g\	-di-	4dd\	ven-
8F\L	.	.	.	.	.	.	8ee-X\L	.
8G\J	.	.	.	.	.	.	8dd\J	.
2A\	.	.	2r	.	2c\	-ctus	2cc\	.
=43	=43	=43	=43	=43	=43	=43	=43	=43
4D\	.	.	4d\	fru-	4f\	fru-	4cc\	.
8E\L	.	.	4d\	-ctus	4f\	-ctus	8b-X\L	.
8F\J	.	.	.	.	.	.	8a\J	.
2G\	.	.	4d\	ven-	(>4f\	ven-	2b-\	.
.	.	.	4d\	-tris	8g\L	.	.	.
.	.	.	.	.	8f\J)	.	.	.
=44	=44	=44	=44	=44	=44	=44	=44	=44
4C/	-tris	.	1c	tu-	4e\	.	4g\	.
4F\	.	.	.	.	4f\	-tris	4a\	-tris
2C/	tu-	.	.	.	2e\	tu-	2g\	tu-
=45	=45	=45	=45	=45	=45	=45	=45	=45
2F\	-i	.	2c\	-i	2f\	-i	2a\	-i
2F\	al-	.	4c\	al-	4f\	al-	4a\	al-
.	.	.	4c\	-le-	4f\	-le-	4a\	-le-
!	!	!	!LO:LB:g=original	!	!	!	!LO:LB:g=original	!
=46	=46	=46	=46	=46	=46	=46	=46	=46
2C/	-le-	.	4c\	-lu-	4e\	-lu-	4g\	-lu-
.	.	.	4c\	-ia	4e\	-ia	4g\	-ja
2C/	-lu-	.	4c\	al-	4e\	al-	4g\	al-
.	.	.	4G/	-le-	4e\	-le-	4cc\	-le-
!	!	!	!	!	!LO:LB:g=original	!	!	!
=47	=47	=47	=47	=47	=47	=47	=47	=47
2D/	-ia	.	2d\	-lu-	2f\	-lu-	2a\	-lu-
2BB-X/	al-	.	2d\	-ia	2f\	-ia	2b-X\	-ja
=48	=48	=48	=48	=48	=48	=48	=48	=48
1C	.	.	2c\	al-	2e\	al-	1g	al-
.	.	.	2c\	-le-	2f\	-le-	.	.
=49	=49	=49	=49	=49	=49	=49	=49	=49
2F\	-le-	.	1c	-lu-	(>2f\	-lu-	2a\	-le-
2C/	-lu-	.	.	.	2e\)	.	2g\	-lu-
=50	=50	=50	=50	=50	=50	=50	=50	=50
!	!	!	!	!	!	!	!LO:N:vis=0	!
1FF	-ia.	.	1c	-ia.	1f	-ia	1a	-ja.
==	==	==	==	==	==	==	==	==
*-	*-	*-	*-	*-	*-	*-	*-	*-
!!!system-decoration: [(s1,s2,s3,s4)]
!!!RDF**kern: > = above
!!!RDF**kern: < = below
!!!EED: Antoni Szymański
!!!EEV: 2021-02-02
!!!ENC: Marcin Jachim
!!!END: 2021-01-28
